Papirus/22x22/panel/skype-status-connected-notification.svg

<?xml version="1.0" encoding="UTF-8" standalone="no"?>
<svg xmlns:osb="http://www.openswatchbook.org/uri/2009/osb" xmlns:dc="http://purl.org/dc/elements/1.1/" xmlns:cc="http://creativecommons.org/ns#" xmlns:rdf="http://www.w3.org/1999/02/22-rdf-syntax-ns#" xmlns:svg="http://www.w3.org/2000/svg" xmlns="http://www.w3.org/2000/svg" id="svg2817" height="22" width="22" version="1.0">
    <defs id="defs429">
        <linearGradient osb:paint="solid" id="linearGradient5606">
            <stop style="stop-color:#000000;stop-opacity:1;" offset="0" id="stop5608"/>
        </linearGradient>
    </defs>
    <metadata id="metadata57">
        <rdf:RDF>
            <cc:Work rdf:about="">
                <dc:format>
                    image/svg+xml
                </dc:format>
                <dc:type rdf:resource="http://purl.org/dc/dcmitype/StillImage"/>
                <dc:title/>
            </cc:Work>
        </rdf:RDF>
    </metadata>
    <g id="g4985">
        <path style="opacity:1;fill:#ffffff;fill-opacity:1;stroke:none;stroke-width:2;stroke-linecap:round;stroke-linejoin:round;stroke-miterlimit:4;stroke-dasharray:none;stroke-opacity:1" d="M 7 3 A 4 4 0 0 0 6.4628906 3.0410156 A 3 3 0 0 1 9 6 A 3 3 0 0 1 6 9 A 3 3 0 0 1 3.0390625 6.4785156 A 4 4 0 0 0 3 7 A 4 4 0 0 0 4.1152344 9.7695312 A 7 7 0 0 0 4 11 A 7 7 0 0 0 11 18 A 7 7 0 0 0 12.238281 17.886719 A 4 4 0 0 0 15 19 A 4 4 0 0 0 19 15 A 4 4 0 0 0 17.884766 12.230469 A 7 7 0 0 0 18 11 A 7 7 0 0 0 11 4 A 7 7 0 0 0 9.7617188 4.1132812 A 4 4 0 0 0 7 3 z M 11.126953 7 C 13.100515 7 14.119141 8.0423939 14.119141 8.6542969 C 14.119141 9.2682509 13.824227 9.359375 13.339844 9.359375 C 12.398538 9.359375 12.784645 8.2265625 11.021484 8.2265625 C 10.43803 8.2265625 9.7089844 8.4920281 9.7089844 9.1738281 C 9.7089844 9.7219311 10.354684 9.9238761 11.494141 10.205078 C 13.211652 10.665081 14.5 11.124162 14.5 12.701172 C 14.5 14.232181 13.253311 15 11.279297 15 C 9.3057349 15 8.0449219 13.818935 8.0449219 13.207031 C 8.0449219 12.595127 8.2773347 12.441406 8.7617188 12.441406 C 9.7045248 12.441406 9.5786859 13.730469 11.341797 13.730469 C 11.927301 13.730469 12.791016 13.463146 12.791016 12.779297 C 12.791016 12.233244 12.744946 12.044334 11.494141 11.707031 C 10.158132 11.52553 8 11.090839 8 9.4238281 C 8 7.8928691 9.1553932 7.0019531 11.128906 7.0019531 L 11.126953 7 z " id="path4982"/>
        <circle r="2" cy="6" cx="6" id="path4559" style="opacity:1;fill:#5294e2;fill-opacity:1;stroke:none;stroke-width:2;stroke-linecap:round;stroke-linejoin:round;stroke-miterlimit:4;stroke-dasharray:none;stroke-opacity:1"/>
    </g>
</svg>

<?xml version="1.0" encoding="UTF-8" standalone="no"?>
<svg id="svg2817" xmlns:rdf="http://www.w3.org/1999/02/22-rdf-syntax-ns#" xmlns="http://www.w3.org/2000/svg" xmlns:osb="http://www.openswatchbook.org/uri/2009/osb" height="22" width="22" version="1.0" xmlns:cc="http://creativecommons.org/ns#" xmlns:dc="http://purl.org/dc/elements/1.1/">
 <metadata id="metadata57">
  <rdf:RDF>
   <cc:Work rdf:about="">
    <dc:format>image/svg+xml</dc:format>
    <dc:type rdf:resource="http://purl.org/dc/dcmitype/StillImage"/>
    <dc:title/>
   </cc:Work>
  </rdf:RDF>
 </metadata>
 <g id="g4985">
  <path id="path4982" d="m7 3a4 4 0 0 0 -0.5371 0.041 3 3 0 0 1 2.5371 2.959 3 3 0 0 1 -3 3 3 3 0 0 1 -2.9609 -2.5215 4 4 0 0 0 -0.0391 0.5215 4 4 0 0 0 1.1152 2.7695 7 7 0 0 0 -0.1152 1.2305 7 7 0 0 0 7 7 7 7 0 0 0 1.238 -0.113 4 4 0 0 0 2.762 1.113 4 4 0 0 0 4 -4 4 4 0 0 0 -1.115 -2.77 7 7 0 0 0 0.115 -1.23 7 7 0 0 0 -7 -7 7 7 0 0 0 -1.2383 0.1133 4 4 0 0 0 -2.7617 -1.1133zm4.127 4c1.974 0 2.992 1.0424 2.992 1.6543 0 0.614-0.295 0.7051-0.779 0.7051-0.941 0-0.555-1.1328-2.319-1.1328-0.583 0-1.312 0.2654-1.312 0.9472 0 0.5481 0.646 0.7501 1.785 1.0312 1.718 0.46 3.006 0.919 3.006 2.496 0 1.531-1.247 2.299-3.221 2.299-1.9733 0-3.2341-1.181-3.2341-1.793s0.2324-0.766 0.7168-0.766c0.9428 0 0.817 1.289 2.5803 1.289 0.585 0 1.449-0.267 1.449-0.951 0-0.546-0.046-0.735-1.297-1.072-1.336-0.181-3.494-0.616-3.494-2.2832 0-1.5309 1.1554-2.4218 3.129-2.4218l-0.002-0.002z" fill="#fff"/>
  <circle id="path4559" cy="6" cx="6" r="2" fill="#5294e2"/>
 </g>
</svg>
